X:0284
T:Notingham Castle.
M:2/4
L:1/16
Q:1/4=104
I: :: :| DC
P:ABA % Aird uses a da capo
Z:Jack Campin * www.campin.me.uk * 2009
K:G
P:A
gfga b2g2|dedc {c}B2AG|G2G2 AGAB|c2B2 B2A2|
gfga b2g2|d2dc {c}B2AG|D2G2 Bedc|B2G2 G4 :|
P:B
B2AG c2c2|B2AG    A2D2|g2g2 fafd|egec d2D2|
BdBG c2c2|BdBG    A2D2|g2g2 fafd|egec d4 :|
<end>
<start>
